X:1
T:Processional, 11.11.11.11
T:Processional, 11.11.11.11
T:William Marion Runyan, 1920
T:Public Domain Courtesy of the Cyber Hymnal™
C:William Marion Runyan, 1920
Z:Public Domain
Z:Courtesy of the Cyber Hymnal™
%%score ( 1 2 ) ( 3 4 )
L:1/8
Q:1/4=115
M:4/4
K:Eb
V:1 treble 
V:2 treble 
V:3 bass 
V:4 bass 
V:1
 [EB]2 [EB]2 [EA]2 [EG]2 | [CG]4 [CF]2 [Ec]2 | [DB]2 [DF]2 [DG]2 [DA]2 | [EG]6 z2 | %4
 [EB]2 [EB]2 [EA]2 [EG]2 | [EG]4 [EF]4 | [EF]2 [Ec]2 [Fd]2 [Ec]2 | B6 F2 | %8
 [EB]2 [Ge]2 [GB]2 [EG]2 | B4 [AB]4 | [GB]2 [Ge]2 [EB]2 [EG]2 | [DB]4 [AB]4 | %12
 [GB]2 [GB]2 [DA]2 [EG]2 | e4 d2 e2 | [Ge]2 [EG]2 [DA]2 [B,D]2 | [B,E]6 z2 |] %16
V:2
 x8 | x8 | x8 | x8 | x8 | x8 | x8 | D2 A2 G2 x2 | x8 | D2 F2 x4 | x8 | x8 | x8 | E2 F2 ^F4 | x8 | %15
 x8 |] %16
V:3
 [E,G,]2 [E,G,]2 [E,C]2 [E,B,]2 | [A,,B,]4 A,2 G,2 | [B,,F,]2 [B,,A,]2 [B,,G,]2 [B,,F,]2 | %3
 (E,2 G,2 C2 B,2) | [E,G,]2 [E,G,]2 [E,C]2 [E,B,]2 | [F,=A,]2 [G,B,]2 [A,C]2 [G,B,]2 | %6
 [F,=A,]2 [F,A,]2 [F,G,]2 [F,A,]2 | B,2 C2 B,2 A,2 | [E,G,]2 [E,B,]2 [E,E]2 [E,B,]2 | %9
 B,2 D2 (C2 D2) | [E,E]2 [E,B,]2 [G,B,]2 [E,B,]2 | (A,2 B,2) (C2 D2) | %12
 [E,E]2 [E,E]2 [F,B,]2 [G,B,]2 | [A,C]4 [=A,C]4 | B,2 [B,,B,]2 [B,,C]2 [B,,A,]2 | [E,G,]6 z2 |] %16
V:4
 x8 | x4 A,,4 | x8 | E,6 x2 | x8 | x8 | x8 | B,,6 x2 | x8 | F,4 B,,4 | x8 | F,4 B,,4 | x8 | x8 | %14
 B,2 x6 | x8 |] %16

